assets/icons/qvision/music_off.svg

<svg xmlns="http://www.w3.org/2000/svg" height="24" viewBox="0 0 24 24" width="24"><path d="M0 0h24v24H0z" fill="none"/><path d="M4.27 3L3 4.27l9 9v.28c-.59-.34-1.27-.55-2-.55-2.21 0-4 1.79-4 4s1.79 4 4 4 4-1.79 4-4v-1.73L19.73 21 21 19.73 4.27 3zM14 7h4V3h-6v5.18l2 2z"/></svg>

<svg width="24" height="24" viewBox="0 0 24 24" fill="none" xmlns="http://www.w3.org/2000/svg">
<g clip-path="url(#clip0_147_3611)">
<path d="M4.27 3L3 4.27L12 13.27V13.55C11.41 13.21 10.73 13 10 13C7.79 13 6 14.79 6 17C6 19.21 7.79 21 10 21C12.21 21 14 19.21 14 17V15.27L19.73 21L21 19.73L4.27 3ZM14 7H18V3H12V8.18L14 10.18V7Z" fill="#323232"/>
</g>
<defs>
<clipPath id="clip0_147_3611">
<rect width="24" height="24" fill="white"/>
</clipPath>
</defs>
</svg>
